!!!COM: Palestrina, Giovanni Perluigi da
!!!OPR: Missa Nasce la gioia mia
!!!OTL: Kyrie II
**kern	**kern	**kern	**kern	**kern	**kern
*Ibass	*Itenor	*Itenor	*Icalto	*Icant	*Icant
!Bassus	!Tenor 2	!Tenor 1	!Altus	!Cantus 2	!Cantus 1
*clefF4	*clefGv2	*clefGv2	*clefG2	*clefG2	*clefG2
*k[b-]	*k[b-]	*k[b-]	*k[b-]	*k[b-]	*k[b-]
*G:dor	*G:dor	*G:dor	*G:dor	*G:dor	*G:dor
*M4/2	*M4/2	*M4/2	*M4/2	*M4/2	*M4/2
=1	=1	=1	=1	=1	=1
0r	0r	0r	1g	0r	0r
.	.	.	2g	.	.
.	.	.	2cc	.	.
=2	=2	=2	=2	=2	=2
0r	0r	1r	2b-	0r	1dd
.	.	.	2g	.	.
.	.	1G	1b-	.	2dd
.	.	.	.	.	2gg
=3	=3	=3	=3	=3	=3
0r	1r	2d	2a	0r	2ff
.	.	2g	2.b-	.	2dd
.	1d	2f	.	.	2.ff
.	.	.	4a	.	.
.	.	2d	[2a	.	.
.	.	.	.	.	4ee
=4	=4	=4	=4	=4	=4
0r	2d	2f	2a]	1r	2dd
.	2g	2e	2g	.	2cc#
.	2f	[1d	1a	2r	2dd
.	4d	.	.	2a	[2ff
.	4e	.	.	.	.
=5	=5	=5	=5	=5	=5
0r	4f	2d]	4d	2a	2ff]
.	4g	.	4e	.	.
.	1a	2d	4f	2dd	2ff
.	.	.	4g	.	.
.	.	2A	1a	2cc	4ee
.	.	.	.	.	4cc
.	2f	2d	.	2a	[2ff
=6	=6	=6	=6	=6	=6
1r	1g	1c	1r	2.cc	2ff]
.	.	.	.	.	2ee
.	.	.	.	4b-	.
1D	2f	2.d	2r	4a	2.ff
.	.	.	.	4g	.
.	[2d	.	2f	[2a	.
.	.	4c	.	.	4ee
=7	=7	=7	=7	=7	=7
2D	2d]	1B-	2f	2a]	1dd
2G	2B-	.	2d	2g	.
2F	2c	2A	2.f	[1a	1r
2D	2d	[2F	.	.	.
.	.	.	4g	.	.
=8	=8	=8	=8	=8	=8
1F	1c	4F]	2a	1a]	2r
.	.	4G	.	.	.
.	.	4A	1f	.	2cc
.	.	4F	.	.	.
1C	1c	1G	.	2r	2cc
.	.	.	2e	2cc	2cc
=9	=9	=9	=9	=9	=9
1F	2c	2.F	2f	2cc	2.a
.	1A	.	2.a	2cc	.
.	.	4G	.	.	4b-
2F	.	[1A	.	1a	2cc
.	.	.	4g	.	.
2D	[2d	.	2f	.	2dd
=10	=10	=10	=10	=10	=10
1A	2d]	0A]	2e	2.a	1ee
.	2c#	.	2.a	.	.
.	.	.	.	4g	.
2D	2d	.	.	2f	4ff
.	.	.	4g	.	4ee
2D	2A	.	4f	[2a	4dd
.	.	.	4e	.	4cc
=11	=11	=11	=11	=11	=11
2G	2B-	1r	2d	4a]	2b-
.	.	.	.	4g	.
2C	2c	.	2e-	1g	2g
1D	1A	2r	1d	.	1dd
.	.	[2d	.	2f#	.
=12	=12	=12	=12	=12	=12
1G	2r	2d]	1r	2.g	1b
.	1G	2d	.	.	.
.	.	.	.	8f	.
.	.	.	.	8e	.
1r	.	2.g	2r	1d	2b
.	2G	.	2g	.	2b
.	.	4f	.	.	.
=13	=13	=13	=13	=13	=13
1r	2c	2e	2g	1r	1cc
.	2F	1f	2a	.	.
2r	1c	.	[1g	2r	1cc
[2C	.	4e	.	2g	.
.	.	4d	.	.	.
=14	=14	=14	=14	=14	=14
2C]	1c	1e	1g]	2g	1cc
2C	.	.	.	2cc	.
2F	2c	[1f	1f	2a	2r
2BB-	2d	.	.	[2b-	2b-
=15	=15	=15	=15	=15	=15
1F	1c	1f]	2r	2b-]	2cc
.	.	.	1f	2a	2cc
[1BB-	1B-	2r	.	2.b-	2.dd
.	.	[2B-	2f	.	.
.	.	.	.	4cc	4ee-
=16	=16	=16	=16	=16	=16
1BB-]	0r	2B-]	1b-	1dd	1.ff
.	.	2B-	.	.	.
1r	.	2f	2a	1cc	.
.	.	2c	[2cc	.	2ee-
=17	=17	=17	=17	=17	=17
0r	2r	1g	2cc]	1r	0dd
.	1G	.	4b	.	.
.	.	.	4a	.	.
.	.	1g	1b	2r	.
.	2G	.	.	[2g	.
=18	=18	=18	=18	=18	=18
0r	1.c	2e-	2.cc	2g]	1.ee-
.	.	4c	.	2g	.
.	.	4d	8b-	.	.
.	.	.	8a	.	.
.	.	4e-	1g	2cc	.
.	.	4f	.	.	.
.	2G	[2g	.	2b-	2dd
=19	=19	=19	=19	=19	=19
1.D	0d	2g]	1r	0a	0dd
.	.	4f#	.	.	.
.	.	4e	.	.	.
.	.	1f#	2r	.	.
2D	.	.	2d	.	.
=20	=20	=20	=20	=20	=20
1G	1B-	2g	2d	1g	2r
.	.	2d	2g	.	1dd
1D	2A	2.d	2f	2a	.
.	2d	.	[2a	2f	2dd
.	.	4c	.	.	.
=21	=21	=21	=21	=21	=21
1G	2d	1B-	2a]	1g	1dd
.	2d	.	1g	.	.
1D	1d	1A	.	1a	1dd
.	.	.	2f#	.	.
=22	=22	=22	=22	=22	=22
0G	0d	0G	0g	0b	0dd
==	==	==	==	==	==
*-	*-	*-	*-	*-	*-
!!!CDT: 1525/^1526/-1594/2/2
!!!OCY: Italia
!!!AGN: Mass (Parody)
!!!AST: renaissance, vocal
!!!ASW: Madrigal 1565 (Primavera)
!!!PWK: Masses, Book 5
!!!RNB: Cadence finals: D
!!!YOR: Le Opere Complete, v. 15, p. 161
!!!YOO: Rome, Italy: Fratelli Scalera
!!!END: 1992//
!!!EED: John Miller
!!!YEC: Copyright 2000, John Miller
!!!YEN: United States of America
!!!YEM: Rights to all derivative electronic formats reserved.
!!!YEM: Refer to licensing agreement for further details.
!!!YEM: This file must be accompanied by the licensing agreement.
!!!YEM: A copy of the licensing agreement may be found at http://www.music-cog.ohio-state.edu/HumdrumDatabases/Palestrina/license.txt
!!!EMD: converted to Humdrum by Bret Aarden
